X:1
T:When the Veil Is Lifted
T:When the Veil Is Lifted
T:Charles Edward Pollock
T:Charles Edward Pollock, 1904
T:Public Domain Courtesy of the Cyber Hymnal™
T:Public Domain Courtesy of the Cyber Hymnal™
C:Charles Edward Pollock
Z:Public Domain
Z:Courtesy of the Cyber Hymnal™
%%score ( 1 2 ) ( 3 4 )
L:1/8
Q:1/4=105
M:4/4
K:G
V:1 treble 
V:2 treble 
V:3 bass 
V:4 bass 
V:1
 D2 | D2 [DG]2 [DG]3 [FA] | [GB]2 [Gd]2 [Gd]3 G | [GB]2 [GB]2 [DA]2 [EG]2 | [FA]6 D2 | %5
w: 1.~’Tis|but a veil that|hangs be- tween The|un- seen world and|this, And|
w: 2.~To|calm the ser- vant’s|need- less fears, God|drew this veil a-|side; When|
w: 3.~De-|part- ing saints such|scenes be- hold, As|in death’s arms they|sink; May|
 D2 [DG]2 [DG]3 [FA] | [GB]2 [Gd]2 [Ge]3 [Ge] | [Gd]2 [GB]2 [FA]3 [DG] | [DG]6 z2 || %9
w: hides from view the|saint- ed forms, The|world of per- fect|bliss.|
w: all a- bout E-|li- sha, lo! A|might- y host he|spied.|
w: Hea- ven not be|near us now? E’en|near- er than we|think?|
"^Refrain" [Gd]>[Gd] [Gd]>[Ge] [Gd] [GB]2 z | [EG]>[EA] [EG]>[CE] [B,D]4 | %11
w: ||
w: When the veil is lift- ed,|In the by and by,|
w: ||
 [DG]>[DG] [DA]>[DA] [DB] [DB]2 G | [FA]>[FA] [FA]>[GB] [FA]4 | [Gd]>[Gd] [Gd]>[Ge] [Gd] [GB]2 z | %14
w: |||
w: Scenes of won- drous beau- ty Will|greet the rap- tured eye;|Forms of cher- ished loved ones,|
w: |||
 [EG]>[EA] [EG]>[CE] [B,D]4 | [DG]>[DG] [DA]>[DA] [DB] [Gd]2 G | [GB]>[GB] [FA]>[FA] !fermata!G2 |] %17
w: |||
w: Hosts of an- gels bright,|When the veil is lift- ed, Will|dawn up- on our sight.|
w: |||
V:2
 D2 | D2 x6 | x7 G | x8 | x6 D2 | D2 x6 | x8 | x8 | x8 || x8 | x8 | x7 G | x8 | x8 | x8 | x7 G | %16
 x4 G2 |] %17
V:3
 [G,B,]2 | [G,B,]2 [G,B,]2 [G,B,]3 [D,D] | [G,D]2 [G,B,]2 [G,B,]3 [G,B,] | %3
 [G,D]2 [G,D]2 [F,D]2 [E,^C]2 | [D,D]6 [G,B,]2 | [G,B,]2 [G,B,]2 [G,B,]3 [D,D] | %6
 [G,D]2 [G,B,]2 [C,C]3 [C,C] | [D,B,]2 [D,D]2 [D,C]3 [D,B,] | [G,,B,]6 z2 || %9
 [G,B,]>[G,B,] [G,B,]>[G,C] [G,B,] [G,D]2 z | [C,C]>[C,C] [C,C]>[C,G,] [G,,G,]4 | %11
 [B,,G,]>[B,,G,] [D,F,]>[D,F,] G, G,2 [G,B,] | [D,D]>[D,D] [D,D]>[D,D] [D,D]4 | %13
 [G,B,]>[G,B,] [G,B,]>[G,C] [G,B,] [G,D]2 z | [C,C]>[C,C] [C,C]>[C,G,] [G,,G,]4 | %15
 [B,,G,]>[B,,G,] [D,F,]>[D,F,] G, [G,B,]2 [G,B,] | [D,D]>[D,D] [D,C]>[D,C] !fermata![G,,B,]2 |] %17
V:4
 x2 | x8 | x8 | x8 | x8 | x8 | x8 | x8 | x8 || x8 | x8 | x4 G, G,2 x | x8 | x8 | x8 | x4 G, x3 | %16
 x6 |] %17

